X: 36704
T: Sheba's
R: jig
M: 6/8
K: Gminor
fga|:bfd fec|Bcd F2D|EGc DFB|Acc fga|
bfd fec|Bcd F2D|Eed cBA|1 ~B3 fga:|2 ~B3 Bed||
cAF ABc|BFE DEF|G2E FED|Ccc ced|
[1 cAF ABc|BFE DEF|Eed cBA|~B3 Bed:|
[2 cAF ABc|Bba gfe|dcB ABc|B3 Bdf||

